img/profile/share.svg

<svg width="24" height="24" viewBox="0 0 24 24" fill="none" xmlns="http://www.w3.org/2000/svg">
<path fill-rule="evenodd" clip-rule="evenodd" d="M5.20503 9.79503C5.4173 9.5902 5.70153 9.47693 5.9965 9.47964C6.29147 9.48234 6.57358 9.60079 6.78207 9.80947C6.99056 10.0182 7.10874 10.3004 7.11116 10.5953C7.11359 10.8903 7.00006 11.1744 6.79503 11.3865L5.70453 12.477C4.94545 13.2512 4.52262 14.2937 4.52795 15.3779C4.53329 16.4621 4.96635 17.5004 5.73301 18.267C6.49967 19.0337 7.53795 19.4668 8.62216 19.4721C9.70637 19.4774 10.7489 19.0546 11.523 18.2955L12.6135 17.205C12.8268 17.0063 13.1089 16.8981 13.4003 16.9033C13.6918 16.9084 13.9698 17.0265 14.176 17.2326C14.3821 17.4387 14.5001 17.7168 14.5053 18.0082C14.5104 18.2997 14.4022 18.5818 14.2035 18.795L13.1145 19.8855C11.9158 21.0535 10.3053 21.7022 8.63168 21.6913C6.95809 21.6804 5.35614 21.0108 4.17271 19.8273C2.98928 18.6439 2.31962 17.042 2.30873 15.3684C2.29784 13.6948 2.9466 12.0843 4.11453 10.8855L5.20503 9.79503ZM17.205 12.6135C17.0063 12.8268 16.8981 13.1089 16.9033 13.4003C16.9084 13.6918 17.0265 13.9698 17.2326 14.176C17.4387 14.3821 17.7168 14.5001 18.0082 14.5053C18.2997 14.5104 18.5818 14.4022 18.795 14.2035L19.8855 13.1145C21.0535 11.9158 21.7022 10.3053 21.6913 8.63168C21.6804 6.95809 21.0108 5.35614 19.8273 4.17271C18.6439 2.98928 17.042 2.31962 15.3684 2.30873C13.6948 2.29784 12.0843 2.9466 10.8855 4.11453L9.79503 5.20503C9.5902 5.4173 9.47693 5.70153 9.47964 5.9965C9.48234 6.29147 9.60079 6.57358 9.80947 6.78207C10.0182 6.99056 10.3004 7.10874 10.5953 7.11116C10.8903 7.11359 11.1744 7.00006 11.3865 6.79503L12.477 5.70453C13.2512 4.94545 14.2937 4.52262 15.3779 4.52795C16.4621 4.53329 17.5004 4.96635 18.267 5.73301C19.0337 6.49967 19.4668 7.53795 19.4721 8.62216C19.4774 9.70637 19.0546 10.7489 18.2955 11.523L17.205 12.6135ZM15.795 9.79503C15.9056 9.69203 15.9942 9.56783 16.0557 9.42983C16.1172 9.29183 16.1502 9.14286 16.1529 8.99181C16.1556 8.84076 16.1278 8.69071 16.0712 8.55063C16.0146 8.41055 15.9304 8.2833 15.8236 8.17647C15.7168 8.06964 15.5895 7.98542 15.4494 7.92884C15.3093 7.87226 15.1593 7.84447 15.0082 7.84714C14.8572 7.8498 14.7082 7.88287 14.5702 7.94436C14.4322 8.00584 14.308 8.0945 14.205 8.20503L8.20503 14.205C8.0945 14.308 8.00584 14.4322 7.94436 14.5702C7.88287 14.7082 7.8498 14.8572 7.84714 15.0082C7.84447 15.1593 7.87226 15.3093 7.92884 15.4494C7.98542 15.5895 8.06964 15.7168 8.17647 15.8236C8.2833 15.9304 8.41055 16.0146 8.55063 16.0712C8.69071 16.1278 8.84076 16.1556 8.99181 16.1529C9.14286 16.1502 9.29183 16.1172 9.42983 16.0557C9.56783 15.9942 9.69203 15.9056 9.79503 15.795L15.795 9.79503Z" fill="#F2F4F6"/>
</svg>

<svg width="24" height="24" viewBox="0 0 24 24" fill="none" xmlns="http://www.w3.org/2000/svg"><path fill-rule="evenodd" clip-rule="evenodd" d="M5.205 9.795a1.125 1.125 0 011.59 1.591l-1.09 1.091a4.115 4.115 0 005.818 5.819l1.09-1.091a1.125 1.125 0 011.59 1.59l-1.088 1.09a6.364 6.364 0 01-9-9l1.09-1.09zm12 2.819a1.125 1.125 0 001.59 1.59l1.09-1.09a6.364 6.364 0 00-9-9l-1.09 1.091a1.125 1.125 0 001.591 1.59l1.091-1.09a4.115 4.115 0 015.819 5.818l-1.091 1.09zm-1.41-2.819a1.124 1.124 0 10-1.59-1.59l-6 6a1.125 1.125 0 101.59 1.59l6-6z" fill="#F2F4F6"/></svg>
